X: 631
T:Bottle Bank
M:4/4
L:1/8
C:James Hill
R:Hornpipe
N:Transposed from the original Bb
N:Posted to the woodenflute mailing list February 2003
Z:Brad Hurley
K:D
ag|fefd egce|dcde dfed|cdBc ABGB|(3ABA (3GFE D2 ag|
fefd egce|dcde d2 AG|FAdf GBeg|ba^ga d2:|
AF|DFAd fdcd|EGce gece|DFAd fdcd|(3efe (3dcB A2 AF|
DFAd fdcd|EGce gece|ba^ga ba^ga|f2 d2 d2:|

